X: 1
T: Tobermory Bay [ABB]
C: Winifred Carnie
R: strathspey
Z: 2006 John Chambers <jc:trillian.mit.edu>
S: handwritten MS of unknown origin
N: Composer's last name is illegible in the MS
M: C
L: 1/16
K: A
E \
| "A"A3B [c3E3]B "D"AF3 F3A | "A"E3F A3c ec3 "E7"B3c \
| "A"A3B [c3E3]B "D"AF3 F3A | "A"E3A [e3E3]c "E7"B4 "A"A3 |]
|: c \
| "D"d3f f3d "A"c3e e3c | "Bm"d3c B3A "A"cBAE "D"F3A \
| "A"E3F A3B cdec "D"[a3A3]f | "A"e3c "D"A3c "E7"B4 "A"A3 :|
